icon_installer/data/icons/scalable/actions/show-audio-x-generic-symbolic.svg

<?xml version="1.0" encoding="UTF-8"?>
<svg height="16px" viewBox="0 0 16 16" width="16px" xmlns="http://www.w3.org/2000/svg">
    <path d="m 8 1 c -1.644531 0 -3 1.355469 -3 3 v 4.339844 c -0.457031 -0.214844 -0.964844 -0.339844 -1.5 -0.339844 c -1.921875 0 -3.5 1.578125 -3.5 3.5 s 1.578125 3.5 3.5 3.5 c 1.914062 0 3.492188 -1.570312 3.5 -3.484375 c 0 -0.003906 0 -0.011719 0 -0.015625 v -7.5 c 0 -0.5625 0.4375 -1 1 -1 h 4 c 0.5625 0 1 0.4375 1 1 v 4.339844 c -0.457031 -0.214844 -0.964844 -0.339844 -1.5 -0.339844 c -1.921875 0 -3.5 1.578125 -3.5 3.5 s 1.578125 3.5 3.5 3.5 s 3.5 -1.578125 3.5 -3.5 v -7.5 c 0 -1.644531 -1.355469 -3 -3 -3 z m -4.5 9 c 0.839844 0 1.5 0.660156 1.5 1.5 v 0.015625 c -0.007812 0.832031 -0.664062 1.484375 -1.5 1.484375 c -0.839844 0 -1.5 -0.660156 -1.5 -1.5 s 0.660156 -1.5 1.5 -1.5 z m 8 0 c 0.839844 0 1.5 0.660156 1.5 1.5 s -0.660156 1.5 -1.5 1.5 s -1.5 -0.660156 -1.5 -1.5 s 0.660156 -1.5 1.5 -1.5 z m 0 0" fill="#222222"/>
</svg>

<svg xmlns="http://www.w3.org/2000/svg" width="16" height="16"><path fill="#222" d="M8 1C6.355 1 5 2.355 5 4v4.34A3.519 3.519 0 0 0 3.5 8C1.578 8 0 9.578 0 11.5S1.578 15 3.5 15A3.516 3.516 0 0 0 7 11.516V4c0-.563.438-1 1-1h4c.563 0 1 .438 1 1v4.34A3.519 3.519 0 0 0 11.5 8C9.578 8 8 9.578 8 11.5S9.578 15 11.5 15s3.5-1.578 3.5-3.5V4c0-1.645-1.355-3-3-3zm-4.5 9c.84 0 1.5.66 1.5 1.5v.016A1.485 1.485 0 0 1 3.5 13c-.84 0-1.5-.66-1.5-1.5S2.66 10 3.5 10zm8 0c.84 0 1.5.66 1.5 1.5s-.66 1.5-1.5 1.5-1.5-.66-1.5-1.5.66-1.5 1.5-1.5zm0 0"/></svg>
